X: 2
T: Condon's Frolics
R: jig
M: 6/8
L: 1/8
K: Edor
A|Bee Bcd|ABG FED|GFG AGA|B2A Bcd|Bee Bcd|ABG FEF|DFA dAF|EFE E2:|A|BEF G2A|BAG FED|BEF G2A|B2A Bed|BEF G2A|BAG FEF|DFA dAF|EFE E2:|


Tune 1244	Setting 25792

